X:267
T: WOR IS JUWE VADER
N: E0863
O: Europa, Mitteleuropa, Deutschland, Sachsen
R: Hochzeits -, Ehestands - Lied
M: 4/4
L: 1/8
K: C
cc | c2B2A2G2 | c2c2G2
G2 | A2A2G2G2 | A2A2G4 |
F2F2G2F2 | E2D2C2
c2 | c2c2G2G2 | A2A2G2
G2 | c2c2G2G2 | A2A2G4 |
F2F2G2F2 | E2D2C2
c2 | c2c2B4 | A2A2G4 | A2A2G2G2 |
F2F2G2F2 | E2D2C4 |
F2F2G2F2 | E2D2C4 |
F2F2G2F2 | E2D2C4 |
F2F2G2F2 | E2D2C4 |
c2B2A2G2 | c4G2G2 |
A2A2G2G2 | A2A2G2G2 |
A2A2D2D2 | E6

@@@ Tune index: 4580
